X: 25596
T: Marnoch's
R: strathspey
M: 4/4
K: Aminor
B,|C>B,A,<A E<A,A,>C|B,>A,G,<G D<G,G,>B,|C>B,A,<A E<A,A,>d|B<Gd>B A2 A2:|
B|^c>eA>e c<AA>c|B<Gd>d B<GG>B|^c>eA>e c<AA>c|B<Gd>B A2 A2B|
^c>eA>e c<AA>c|B<Gd>d B<GG>B|^c>ed>B =c>AB<G|A<EG>B, A,2 A,2||

